X: 1
T: Angels from the Realms of Glory
Z: John Chambers <jc:trillian.mit.edu>
M: 4/4
L: 1/4
K: C
| "C"GE cG | e>d cG \
| "F"AA "C"Gc | "G7"G>F E2 \
|| "C"GE cG | e>d c"E"B |
| "Am"c"E"B "Am"AB/c/ | "D7"B>A "G"G2 \
|| "G"d>d BG | "C7"e>d "F"cA \
| "Dm"f"C"e "Dm"d"Am"c |"G7"cB "C"c2 |]
